svg/emoji_u1f4b5.svg

<svg xmlns="http://www.w3.org/2000/svg" width="128" height="128"><path d="M123.84 40.19H4.15c-1.82 0-3.29 1.47-3.29 3.29v58.54c0 1.81 1.47 3.29 3.29 3.29h119.69c1.81 0 3.29-1.47 3.29-3.29V43.48c0-1.81-1.47-3.29-3.29-3.29z" fill="#789c79"/><path d="M123.84 22.69H4.15c-1.82 0-3.29 1.47-3.29 3.29v58.54c0 1.81 1.47 3.29 3.29 3.29h119.69c1.81 0 3.29-1.47 3.29-3.29V25.98c0-1.81-1.47-3.29-3.29-3.29z" fill="#b1e0b1"/><path d="M24.49 73.35c.85.26 2.11.6 3.62.89v2.89c0 .42.35.77.77.77h6.16c.43 0 .77-.35.77-.77v-2.4c5.47-.45 9.57-2.82 11.9-6.95 2.25-3.98 1.39-8.11-2.38-11.35-2.38-1.89-6.09-3.53-9.52-4.86v-6.33c2.29.74 4.35 1.48 6.02 2.19.28.11.59.02.76-.23l3.39-5.13.09-.49-.31-.4c-1.93-1.04-5.88-2.64-9.94-3.67V33.8a.77.77 0 0 0-.77-.77h-6.16a.77.77 0 0 0-.77.77v2.78c-5.71.27-9.6 2.25-11.83 6.08-1.75 3.01-1.75 6.4 0 8.85 1.84 2.61 4.83 3.78 8.61 5.25l.5.19c.87.33 1.8.68 2.72 1.01v7.7c-4.02-.96-7.77-2.9-8.45-3.36a.624.624 0 0 0-.84.13l-4.11 5.35-.12.46.24.41c2.48 1.85 6.09 3.61 9.65 4.7zm3.62-29.2v4.66c-1.73-.56-2.82-1.13-2.71-2.48.12-1.39 1.45-1.95 2.71-2.18zM38.4 64.3c-.4 1.04-1.42 1.57-2.59 1.84v-5.31c1.3.58 2.28 1.19 2.64 1.96.2.43.17.92-.05 1.51z" fill="#789c79"/><path fill="#e0e0e0" d="M78.5 20.69h22V87.8h-22z"/><path fill="#bdbdbd" d="M78.5 87.81h22v19.5h-22z"/></svg>

<?xml version="1.0" encoding="UTF-8" standalone="no"?>
<!DOCTYPE svg PUBLIC "-//W3C//DTD SVG 1.1//EN" "http://www.w3.org/Graphics/SVG/1.1/DTD/svg11.dtd">
<svg width="100%" height="100%" viewBox="0 0 128 128" version="1.1" xmlns="http://www.w3.org/2000/svg" xmlns:xlink="http://www.w3.org/1999/xlink" xml:space="preserve" xmlns:serif="http://www.serif.com/" style="fill-rule:evenodd;clip-rule:evenodd;stroke-linejoin:round;stroke-miterlimit:2;">
    <path d="M123.84,40.19L4.15,40.19C2.33,40.19 0.86,41.66 0.86,43.48L0.86,102.02C0.86,103.83 2.33,105.31 4.15,105.31L123.84,105.31C125.65,105.31 127.13,103.84 127.13,102.02L127.13,43.48C127.13,41.67 125.66,40.19 123.84,40.19Z" style="fill:rgb(91,140,49);fill-rule:nonzero;"/>
    <path d="M123.84,22.69L4.15,22.69C2.33,22.69 0.86,24.16 0.86,25.98L0.86,84.52C0.86,86.33 2.33,87.81 4.15,87.81L123.84,87.81C125.65,87.81 127.13,86.34 127.13,84.52L127.13,25.98C127.13,24.17 125.66,22.69 123.84,22.69Z" style="fill:rgb(142,197,79);fill-rule:nonzero;"/>
    <path d="M24.49,73.35C25.34,73.61 26.6,73.95 28.11,74.24L28.11,77.13C28.11,77.55 28.46,77.9 28.88,77.9L35.04,77.9C35.47,77.9 35.81,77.55 35.81,77.13L35.81,74.73C41.28,74.28 45.38,71.91 47.71,67.78C49.96,63.8 49.1,59.67 45.33,56.43C42.95,54.54 39.24,52.9 35.81,51.57L35.81,45.24C38.1,45.98 40.16,46.72 41.83,47.43C42.11,47.54 42.42,47.45 42.59,47.2L45.98,42.07L46.07,41.58L45.76,41.18C43.83,40.14 39.88,38.54 35.82,37.51L35.82,33.8C35.82,33.378 35.472,33.03 35.05,33.03L28.89,33.03C28.468,33.03 28.12,33.378 28.12,33.8L28.12,36.58C22.41,36.85 18.52,38.83 16.29,42.66C14.54,45.67 14.54,49.06 16.29,51.51C18.13,54.12 21.12,55.29 24.9,56.76L25.4,56.95C26.27,57.28 27.2,57.63 28.12,57.96L28.12,65.66C24.1,64.7 20.35,62.76 19.67,62.3C19.401,62.117 19.032,62.175 18.83,62.43L14.72,67.78L14.6,68.24L14.84,68.65C17.32,70.5 20.93,72.26 24.49,73.35ZM28.11,44.15L28.11,48.81C26.38,48.25 25.29,47.68 25.4,46.33C25.52,44.94 26.85,44.38 28.11,44.15ZM38.4,64.3C38,65.34 36.98,65.87 35.81,66.14L35.81,60.83C37.11,61.41 38.09,62.02 38.45,62.79C38.65,63.22 38.62,63.71 38.4,64.3Z" style="fill:rgb(91,140,49);fill-rule:nonzero;"/>
    <rect x="78.5" y="20.69" width="22" height="67.11" style="fill:rgb(224,224,224);fill-rule:nonzero;"/>
    <rect x="78.5" y="87.81" width="22" height="19.5" style="fill:rgb(189,189,189);fill-rule:nonzero;"/>
</svg>
